texture_07.svg

<?xml version="1.0" encoding="UTF-8"?>
<svg width="1024" height="1024" version="1.1" xmlns="http://www.w3.org/2000/svg">
 <g>
  <path d="m896 128h128v128h-128v128h128v128h-128v128h128v128h-128v128h128v128h-128v-128h-128v128h-128v-128h-128v128h-128v-128h-128v128h-128v-128h-128v-128h128v-128h-128v-128h128v-128h-128v-128h128v-128h-128v-128h128v128h128v-128h128v128h128v-128h128v128h128v-128h128v128h-128v128h-128v-128h-128v128h-128v-128h-128v128h-128v128h128v128h-128v128h128v128h-128v128h128v-128h128v128h128v-128h128v128h128v-128h128v-128h-128v-128h128v-128h-128v-128h128v-128m-128 512v128h-128v-128h-128v128h-128v-128h-128v-128h128v-128h-128v-128h128v128h128v-128h128v128h128v128h-128v128h128m-128-256h-128v128h128v-128m-128 256v-128h-128v128h128" fill-opacity=".10196"/>
  <path d="m1022 510v-508h-1020v1020h1020v-512m-1022-510h1024v1024h-1024v-1024" fill="#fff"/>
  <path d="m1022 510v4.05l-508-0.05v508h-4v-508h-508v-4h508v-508h4v508h508" fill="#fff" fill-opacity=".2"/>
 </g>
</svg>

<?xml version="1.0" encoding="UTF-8" standalone="no"?>
<svg
   version="1.1"
   id="svg14"
   sodipodi:docname="texture_07.svg"
   width="1024"
   height="1024"
   inkscape:version="1.1.2 (0a00cf5339, 2022-02-04)"
   xmlns:inkscape="http://www.inkscape.org/namespaces/inkscape"
   xmlns:sodipodi="http://sodipodi.sourceforge.net/DTD/sodipodi-0.dtd"
   xmlns="http://www.w3.org/2000/svg"
   xmlns:svg="http://www.w3.org/2000/svg">
  <sodipodi:namedview
     id="namedview16"
     pagecolor="#505050"
     bordercolor="#eeeeee"
     borderopacity="1"
     inkscape:pageshadow="0"
     inkscape:pageopacity="0"
     inkscape:pagecheckerboard="0"
     showgrid="false"
     inkscape:zoom="0.71182083"
     inkscape:cx="189.65447"
     inkscape:cy="302.74472"
     inkscape:window-width="1440"
     inkscape:window-height="831"
     inkscape:window-x="1280"
     inkscape:window-y="32"
     inkscape:window-maximized="1"
     inkscape:current-layer="g12" />
  <defs
     id="defs2" />
  <g
     id="g12">
    <path
       stroke="none"
       fill="#000000"
       fill-opacity="0.101961"
       d="m 896,128 h 128 V 256 H 896 v 128 h 128 V 512 H 896 v 128 h 128 V 768 H 896 v 128 h 128 v 128 H 896 V 896 H 768 v 128 H 640 V 896 H 512 v 128 H 384 V 896 H 256 v 128 H 128 V 896 H 0 V 768 H 128 V 640 H 0 V 512 H 128 V 384 H 0 V 256 H 128 V 128 H 0 V 0 H 128 V 128 H 256 V 0 H 384 V 128 H 512 V 0 H 640 V 128 H 768 V 0 H 896 V 128 H 768 V 256 H 640 V 128 H 512 V 256 H 384 V 128 H 256 V 256 H 128 V 384 H 256 V 512 H 128 V 640 H 256 V 768 H 128 V 896 H 256 V 768 H 384 V 896 H 512 V 768 H 640 V 896 H 768 V 768 H 896 V 640 H 768 V 512 H 896 V 384 H 768 V 256 H 896 V 128 M 768,640 V 768 H 640 V 640 H 512 V 768 H 384 V 640 H 256 V 512 H 384 V 384 H 256 V 256 H 384 V 384 H 512 V 256 H 640 V 384 H 768 V 512 H 640 V 640 H 768 M 640,384 H 512 V 512 H 640 V 384 M 512,640 V 512 H 384 v 128 h 128"
       id="path6" />
    <path
       stroke="none"
       fill="#ffffff"
       d="M 1022,510 V 2 H 514 510 2 v 508 4 508 h 508 4 508 V 514.05 510 M 0,0 H 1024 V 1024 H 0 V 0"
       id="path8" />
    <path
       stroke="none"
       fill="#ffffff"
       fill-opacity="0.2"
       d="m 1022,510 v 4.05 L 514,514 v 508 h -4 V 514 H 2 v -4 H 510 V 2 h 4 v 508 h 508"
       id="path10" />
  </g>
</svg>
